X: 42606
T: Whigs Of Fife, The
R: reel
M: 4/4
K: Fmajor
f|cF (3FFF AGGA|cF (3FFF fgag|fF (3FFF AGGA|FDE^C D2 D:|
e|fccf gdde|fccd fgag|fccf gdde|fgaf d2de|
fccf gdde|fccd fgaf|dfeg fagb|agfe defd||

